src/assets/duotone/Vibe.svg

<svg width="24" height="24" viewBox="0 0 24 24"  xmlns="http://www.w3.org/2000/svg">
<path d="M14.9501 8.28977C14.8701 8.11977 14.6901 8.00977 14.5001 8.00977H9.50009C9.31009 8.00977 9.14008 8.11977 9.05008 8.28977C8.96008 8.45977 8.98006 8.65977 9.10006 8.80977L11.6001 12.1398C11.6901 12.2698 11.8401 12.3398 12.0001 12.3398C12.1601 12.3398 12.3101 12.2698 12.4001 12.1398L14.9001 8.80977C15.0101 8.66977 15.0301 8.45977 14.9501 8.28977Z" />
<path opacity="0.4" d="M12 22C17.5228 22 22 17.5228 22 12C22 6.47715 17.5228 2 12 2C6.47715 2 2 6.47715 2 12C2 17.5228 6.47715 22 12 22Z" />
<path d="M11.9999 17.7502C11.7599 17.7502 11.5299 17.6302 11.3899 17.4402L6.38992 10.4402C6.14992 10.1002 6.2299 9.63024 6.5599 9.39024C6.8999 9.15024 7.36989 9.23024 7.60989 9.56024L11.9999 15.7102L16.3899 9.56024C16.6299 9.22024 17.0999 9.14024 17.4399 9.39024C17.7799 9.63024 17.8599 10.1002 17.6099 10.4402L12.6099 17.4402C12.4699 17.6302 12.2399 17.7502 11.9999 17.7502Z" />
</svg>

<?xml version="1.0" encoding="UTF-8"?>
<svg width="24" height="24" viewBox="0 0 24 24" xmlns="http://www.w3.org/2000/svg">
 <path d="m14.95 8.2898c-0.08-0.17-0.26-0.28-0.45-0.28h-5c-0.19 0-0.36001 0.11-0.45001 0.28s-0.07002 0.37 0.04998 0.52l2.5 3.33c0.09 0.13 0.24 0.2 0.4 0.2s0.31-0.07 0.4-0.2l2.5-3.33c0.11-0.14 0.13-0.35 0.05-0.52z"/>
 <path d="m12 22c5.5228 0 10-4.4772 10-10 0-5.5228-4.4772-10-10-10-5.5228 0-10 4.4772-10 10 0 5.5228 4.4772 10 10 10z" opacity=".4"/>
 <path d="m12 17.75c-0.24 0-0.47-0.12-0.61-0.31l-5-7c-0.24-0.34-0.16002-0.80996 0.16998-1.05 0.34-0.24 0.80999-0.16 1.05 0.17l4.39 6.15 4.39-6.15c0.24-0.34 0.71-0.42 1.05-0.17 0.34 0.24 0.42 0.70996 0.17 1.05l-5 7c-0.14 0.19-0.37 0.31-0.61 0.31z"/>
</svg>
